images/hex.svg

<svg height="250" viewBox="0 0 250 250" width="250" xmlns="http://www.w3.org/2000/svg" xmlns:xlink="http://www.w3.org/1999/xlink"><linearGradient id="a" gradientUnits="userSpaceOnUse" x1="68.33486817143" x2="182.88854911805" y1="224.29462351209" y2="25.88189188681"><stop offset=".00202893" stop-color="#ffdc00"/><stop offset=".3333" stop-color="#e58e2f"/><stop offset=".6666" stop-color="#db2d72"/><stop offset="1" stop-color="#f0f"/></linearGradient><path d="m64.898438 221.09375-15.511719-26.871094c-.480469-.863281-.480469-2.292968.011719-3.144531l17.226562-29.828125c.496094-.859375 1.761719-1.589844 2.753906-1.589844h34.445313c.992187 0 2.253906.730469 2.753906 1.589844l17.222656 29.828125c.496094.859375.496094 2.3125 0 3.179687l-17.222656 29.828126c-.488281.84375-1.707031 1.550781-2.6875 1.582031h-31c-2.921875-.027344-6.476563-2.0625-7.992187-4.574219zm111.863281-61.378906-34.3125-59.433594c-.683594-1.175781-2.402344-2.171875-3.769531-2.171875h-68.628907c-1.363281 0-3.085937.996094-3.769531 2.171875l-34.316406 59.433594c-.683594 1.175781-.683594 3.171875 0 4.351562l10.058594 17.425782 17.570312-30.433594c.796875-1.390625 2.753906-2.511719 4.351562-2.511719h45.222657c1.597656 0 3.554687 1.128906 4.351562 2.511719l22.613281 39.160156c.800782 1.386719.800782 3.640625 0 5.027344l-17.570312 30.429687h20.101562c1.359376 0 3.085938-.996093 3.769532-2.171875l34.316406-59.433594c.6875-1.183593.6875-3.179687.011719-4.355468zm62.289062-39.316406-52.65625-91.207032c-1.488281-2.578125-5.144531-4.691406-8.121093-4.691406h-105.320313c-2.976563 0-6.632813 2.113281-8.121094 4.691406l-52.65625 91.207032c-1.488281 2.578124-1.488281 6.800781 0 9.378906l12.066407 20.902344 35-60.617188c.988281-1.710938 3.398437-3.097656 5.367187-3.097656h79.46875c1.976563 0 4.378906 1.386718 5.367187 3.097656l39.738282 68.824219c.988281 1.714843.988281 4.488281 0 6.199219l-34.984375 60.589843h24.074219c2.976562 0 6.632812-2.113281 8.121093-4.691406l52.65625-91.207031c1.488281-2.578125 1.488281-6.800782 0-9.378906zm0 0" fill="url(#a)"/></svg>

<!-- Generator: Adobe Illustrator 24.3.0, SVG Export Plug-In . SVG Version: 6.00 Build 0)  -->
<svg xmlns="http://www.w3.org/2000/svg" xmlns:xlink="http://www.w3.org/1999/xlink" width="250px" height="250px" viewBox="0 0 250 250" version="1.1">
<defs>
<linearGradient id="linear0" gradientUnits="userSpaceOnUse" x1="100.966103" y1="331.399689" x2="270.221405" y2="38.241001" gradientTransform="matrix(0.67681,0,0,0.67681,0,0)">
<stop offset="0.00202893" style="stop-color:rgb(100%,86.274511%,0%);stop-opacity:1;"/>
<stop offset="0.3333" style="stop-color:rgb(89.803922%,55.686277%,18.431373%);stop-opacity:1;"/>
<stop offset="0.6666" style="stop-color:rgb(85.882354%,17.647059%,44.705883%);stop-opacity:1;"/>
<stop offset="1" style="stop-color:rgb(100%,0%,100%);stop-opacity:1;"/>
</linearGradient>
</defs>
<g id="surface1">
<path style=" stroke:none;fill-rule:nonzero;fill:url(#linear0);" d="M 64.898438 221.09375 L 49.386719 194.222656 C 48.90625 193.359375 48.90625 191.929688 49.398438 191.078125 L 66.625 161.25 C 67.121094 160.390625 68.386719 159.660156 69.378906 159.660156 L 103.824219 159.660156 C 104.816406 159.660156 106.078125 160.390625 106.578125 161.25 L 123.800781 191.078125 C 124.296875 191.9375 124.296875 193.390625 123.800781 194.257812 L 106.578125 224.085938 C 106.089844 224.929688 104.871094 225.636719 103.890625 225.667969 L 72.890625 225.667969 C 69.96875 225.640625 66.414062 223.605469 64.898438 221.09375 Z M 176.761719 159.714844 L 142.449219 100.28125 C 141.765625 99.105469 140.046875 98.109375 138.679688 98.109375 L 70.050781 98.109375 C 68.6875 98.109375 66.964844 99.105469 66.28125 100.28125 L 31.964844 159.714844 C 31.28125 160.890625 31.28125 162.886719 31.964844 164.066406 L 42.023438 181.492188 L 59.59375 151.058594 C 60.390625 149.667969 62.347656 148.546875 63.945312 148.546875 L 109.167969 148.546875 C 110.765625 148.546875 112.722656 149.675781 113.519531 151.058594 L 136.132812 190.21875 C 136.933594 191.605469 136.933594 193.859375 136.132812 195.246094 L 118.5625 225.675781 L 138.664062 225.675781 C 140.023438 225.675781 141.75 224.679688 142.433594 223.503906 L 176.75 164.070312 C 177.4375 162.886719 177.4375 160.890625 176.761719 159.714844 Z M 239.050781 120.398438 L 186.394531 29.191406 C 184.90625 26.613281 181.25 24.5 178.273438 24.5 L 72.953125 24.5 C 69.976562 24.5 66.320312 26.613281 64.832031 29.191406 L 12.175781 120.398438 C 10.6875 122.976562 10.6875 127.199219 12.175781 129.777344 L 24.242188 150.679688 L 59.242188 90.0625 C 60.230469 88.351562 62.640625 86.964844 64.609375 86.964844 L 144.078125 86.964844 C 146.054688 86.964844 148.457031 88.351562 149.445312 90.0625 L 189.183594 158.886719 C 190.171875 160.601562 190.171875 163.375 189.183594 165.085938 L 154.199219 225.675781 L 178.273438 225.675781 C 181.25 225.675781 184.90625 223.5625 186.394531 220.984375 L 239.050781 129.777344 C 240.539062 127.199219 240.539062 122.976562 239.050781 120.398438 Z M 239.050781 120.398438 "/>
</g>
</svg>
